web/packages/design/src/ResourceIcon/assets/lever.svg

<svg width="72" height="72" viewBox="0 0 72 72" fill="none" xmlns="http://www.w3.org/2000/svg">
<g clip-path="url(#clip0_8803_4392)">
<path d="M71.3207 68.2092L57.7669 54.6533C57.3388 54.2336 56.7632 53.9985 56.1638 53.9985C55.5643 53.9985 54.9887 54.2336 54.5606 54.6533L41.0068 68.2092C40.6836 68.5174 40.4618 68.9167 40.3711 69.3539C40.2803 69.7912 40.3249 70.2458 40.4988 70.6571C40.6727 71.0685 40.9678 71.4171 41.3447 71.6567C41.7216 71.8962 42.1626 72.0153 42.6088 71.9981H69.7187C70.1624 72.0092 70.5992 71.8865 70.9721 71.6459C71.3451 71.4053 71.637 71.058 71.8099 70.6492C71.9827 70.2404 72.0285 69.789 71.9412 69.3538C71.854 68.9186 71.6377 68.5198 71.3207 68.2092Z" fill="#C3C6CC"/>
<path d="M71.7721 19.5207L67.5264 6.91651C67.3349 6.3465 67.0294 5.82138 66.6287 5.37305L0.515625 71.4833C0.903613 71.8306 1.41042 72.0151 1.93086 71.9985H20.7091C21.2339 72.0011 21.7541 71.9001 22.2398 71.7012C22.7255 71.5024 23.1672 71.2097 23.5395 70.8398L70.8721 23.5076C71.3866 22.998 71.7446 22.3519 71.9041 21.6455C72.0635 20.9392 72.0177 20.2019 71.7721 19.5207Z" fill="#E1E3E6"/>
<path d="M65.0836 4.47053L52.4793 0.227131C51.7981 -0.018485 51.0608 -0.0642681 50.3544 0.0951834C49.6481 0.254635 49.002 0.612674 48.4923 1.12711L1.15751 48.4592C0.412896 49.2127 -0.00293089 50.2304 0.00102188 51.2896V70.0677C-0.015507 70.5882 0.169005 71.095 0.516262 71.4829L66.6293 5.37284C66.1804 4.97072 65.6545 4.66377 65.0836 4.47053Z" fill="#C3C6CC"/>
</g>
<defs>
<clipPath id="clip0_8803_4392">
<rect width="72" height="72" fill="white"/>
</clipPath>
</defs>
</svg>

<svg xmlns="http://www.w3.org/2000/svg" width="72" height="72" fill="none" viewBox="0 0 72 72"><g clip-path="url(#a)"><path fill="#c3c6cc" d="M71.32 68.21 57.768 54.652a2.29 2.29 0 0 0-3.206 0L41.007 68.21A2.2 2.2 0 0 0 42.609 72h27.11a2.21 2.21 0 0 0 1.602-3.79"/><path fill="#e1e3e6" d="M71.772 19.52 67.526 6.918a4.4 4.4 0 0 0-.897-1.544L.516 71.483c.388.348.894.532 1.415.516h18.778a4 4 0 0 0 2.83-1.16l47.333-47.331a3.8 3.8 0 0 0 .9-3.987"/><path fill="#c3c6cc" d="M65.084 4.47 52.479.228a3.8 3.8 0 0 0-3.987.9L1.158 48.46A4 4 0 0 0 0 51.29v18.779c-.017.52.168 1.027.515 1.415L66.63 5.373a4.5 4.5 0 0 0-1.545-.902"/></g><defs><clipPath id="a"><path fill="#fff" d="M0 0h72v72H0z"/></clipPath></defs></svg>
